X: 0
T: Kutitus
Q: 1/4=120
M: 2/4
L: 1/16
K:
% - - - - - - - - - - - - - - - - - - - - - - - - -
P: Kutitus   [G]
K: G
|: "G"G4 B3A | G2E2 "(D7)"D4 :: "G"G2GG "D7"F2D2 | "G"G2GG "D7"F2G2 | "A"A2AB "A7"A2G2 | "A7"E2F2 "D"D4 :|
w: Ai jee ku ku-tit-taa. Ei-k\"a se lak-kaa, ei-k\"a se lak-kaa, en-nen ko' si-t\"a pe-ra-taan.
% - - - - - - - - - - - - - - - - - - - - - - - - -
P: Kutitus   [D]
M: 2/4
L: 1/16
K: D
|: "D"d4 f3e | d2B2 "(A7)"A4 :: "D"d2dd "A7"c2A2 | "D"d2dd "A7"c2d2 | "E"e2ef "E7"e2d2 | "E7"B2c2 "A"A4 :|
w: Ai jee ku ku-tit-taa. Ei-k\"a se lak-kaa, ei-k\"a se lak-kaa, en-nen ko' si-t\"a pe-ra-taan.

%%sep 1 1 500

